X: 18887
T: In The Glibe Road
R: jig
M: 6/8
K: Gmajor
|:D|GFG BGc|GBd gdB|A^ce aeg|fed cBA|
~G3 BGc|GBd gdB|~A3 ABc|B2A G2:|
|:B|ded ABA|GBd dBd|cde aeg|fdd def|
gdB ecA|dBG cAG|F2A BDB|cAF G2:|

